svgs/sharp-solid/house-laptop.svg

<svg xmlns="http://www.w3.org/2000/svg" viewBox="0 0 640 512"><!--! Font Awesome Pro 6.6.0 by @fontawesome - https://fontawesome.com License - https://fontawesome.com/license (Commercial License) Copyright 2024 Fonticons, Inc. --><path d="M0 208L240 0 480 208l0 16-192 0 0-32-96 0 0 96 80 0 0 128L64 416l0-160L0 256l0-48zm544 96l-192 0 0 144 192 0 0-144zm-240 0l0-48 48 0 192 0 48 0 0 48 0 144 48 0 0 32-32 32-16 0-48 0-192 0-48 0-16 0-32-32 0-32 48 0 0-144z"/></svg>

<svg xmlns="http://www.w3.org/2000/svg" viewBox="0 0 640 512"><!--! Font Awesome Pro 6.4.2 by @fontawesome - https://fontawesome.com License - https://fontawesome.com/license (Commercial License) Copyright 2023 Fonticons, Inc. --><path d="M0 208L240 0 480 208v16H288V192H192v96h80V416H64V256H0V208zm544 96H352V448H544V304zm-240 0V256h48H544h48v48V448h48v32l-32 32H592 544 352 304 288l-32-32V448h48V304z"/></svg>
